src/pos-icons/currency-rub.svg

<svg height="24" viewBox="0 0 24 24" width="24" xmlns="http://www.w3.org/2000/svg"><path d="m6 10h1v-7h7.5c2.5 0 4.5 2 4.5 4.5s-2 4.5-4.5 4.5h-5.5v2h6v2h-6v5h-2v-5h-1v-2h1v-2h-1zm8.5-5h-5.5v5h5.5a2.5 2.5 0 0 0 2.5-2.5 2.5 2.5 0 0 0 -2.5-2.5z"/></svg>

<?xml version="1.0" encoding="UTF-8"?><!DOCTYPE svg PUBLIC "-//W3C//DTD SVG 1.1//EN" "http://www.w3.org/Graphics/SVG/1.1/DTD/svg11.dtd"><svg xmlns="http://www.w3.org/2000/svg" xmlns:xlink="http://www.w3.org/1999/xlink" version="1.1" id="mdi-currency-rub" width="24" height="24" viewBox="0 0 24 24"><path d="M6,10H7V3H14.5C17,3 19,5 19,7.5C19,10 17,12 14.5,12H9V14H15V16H9V21H7V16H6V14H7V12H6V10M14.5,5H9V10H14.5A2.5,2.5 0 0,0 17,7.5A2.5,2.5 0 0,0 14.5,5Z" /></svg>
